packages/components/icon/src/assets/icons/share.svg

<svg width="24" height="24" viewBox="0 0 24 24" fill="none" xmlns="http://www.w3.org/2000/svg">
<path fill-rule="evenodd" clip-rule="evenodd" d="M21.1798 6.94628C21.1798 7.11984 21.1002 7.26446 20.9411 7.38017L15.3874 11.7407C15.2862 11.8275 15.1849 11.8709 15.0837 11.8709C14.9101 11.8709 14.8233 11.7407 14.8233 11.4804V8.3781C13.1457 8.3781 11.7825 8.73967 10.734 9.46281C9.68543 10.186 8.93699 10.9886 8.48864 11.8709C8.04029 12.7531 7.81612 13.4401 7.81612 13.9318C7.81612 14.1632 7.74742 14.3404 7.61002 14.4633C7.47262 14.5863 7.30269 14.6477 7.10021 14.6477C6.91219 14.6477 6.74587 14.5863 6.60124 14.4633C6.45661 14.3404 6.3843 14.1632 6.3843 13.9318C6.3843 12.8905 6.57231 11.7443 6.94835 10.4933C7.32438 9.24225 8.13791 8.0997 9.38895 7.0656C10.64 6.0315 12.4514 5.51446 14.8233 5.51446V2.41219C14.8233 2.1374 14.9174 2 15.1054 2C15.1921 2 15.2862 2.04339 15.3874 2.13017L20.9411 6.4907C21.1002 6.60641 21.1798 6.75826 21.1798 6.94628ZM19.2273 17.9886C19.2273 18.1911 19.1586 18.3611 19.0212 18.4985C18.8838 18.6358 18.7138 18.7045 18.5114 18.7045H3.71591C3.51343 18.7045 3.34349 18.6358 3.2061 18.4985C3.0687 18.3611 3 18.1911 3 17.9886V7.01136C3 6.80888 3.07231 6.63895 3.21694 6.50155C3.36157 6.36415 3.52789 6.29545 3.71591 6.29545H8.20661C7.55578 6.83058 6.99897 7.46694 6.53616 8.20455H4.90909V16.7955H17.3182V12.0661L19.2273 10.5475V17.9886Z" fill="currentColor"/>
</svg>

<svg viewBox="0 0 24 24" fill="none" xmlns="http://www.w3.org/2000/svg"><path fill-rule="evenodd" clip-rule="evenodd" d="M21.18 6.946a.52.52 0 0 1-.239.434l-5.554 4.36a.469.469 0 0 1-.303.13c-.174 0-.26-.13-.26-.39V8.378c-1.678 0-3.041.362-4.09 1.085s-1.797 1.526-2.245 2.408c-.449.882-.673 1.57-.673 2.06 0 .232-.069.41-.206.532a.736.736 0 0 1-.51.185.748.748 0 0 1-.499-.185c-.144-.123-.217-.3-.217-.531 0-1.042.188-2.188.564-3.439.376-1.25 1.19-2.393 2.44-3.427 1.252-1.034 3.063-1.552 5.435-1.552V2.412c0-.275.094-.412.282-.412.087 0 .181.043.282.13l5.554 4.36c.16.116.239.268.239.456ZM19.227 17.99a.693.693 0 0 1-.206.51.693.693 0 0 1-.51.206H3.716a.693.693 0 0 1-.51-.206.693.693 0 0 1-.206-.51V7.01c0-.202.072-.372.217-.51a.703.703 0 0 1 .499-.206h4.49a7.856 7.856 0 0 0-1.67 1.91H4.91v8.59h12.41v-4.729l1.908-1.519v7.442Z" fill="currentColor"/></svg>
